!!!OTL: DO KOM ALL EIN KANOENNEKEN AN
!!!ARE: Europa, Mitteleuropa, Deutschland, Westfalen
!!!SCT: K2287
!!!YEM: Copyright 1995, estate of Helmut Schaffrath.
**kern
*ICvox
*Ivox
*M2/4
*k[f#]
*G:
{8d
=1
8g
8g
8g
8g
=2
8fn
8e
4d}
=3
{8e
8e
8fn
8fn
=4
4g
8r}
{8d
=5
8g
8g
8g
8g
=6
8fn
8e
4d}
=7
{8e
8e
8fn
8fn
=8
4g
8r}
==
!!!AGN: Kinder - Lied, Reigen, Tanz - Spiel
!!!ONB: ESAC (Essen Associative Code) Database: KINDER
!!!AMT: simple duple
!!!AIN: vox
!!!EED: Helmut Schaffrath
!!!EEV: 1.0
*-
